epam-assets/icon-sources/18/internal-logo/examinator.svg

<svg width="18" height="18" viewBox="0 0 18 18" fill="none" xmlns="http://www.w3.org/2000/svg">
<g id="18/internal-logo/examinator">
<path id="icon" fill-rule="evenodd" clip-rule="evenodd" d="M16.5 9.84737C16.5 9.38959 16.411 8.9541 16.2331 8.56328L15.9663 2.5L15.5771 3.61663L15.5724 3.62744V3.62754L15.5724 3.62764C15.5451 3.69317 15.4116 4.01389 15.0322 4.3536L15.099 2.71216L14.6765 3.25931L14.6697 3.26725L14.6696 3.2674C14.5912 3.36208 13.8579 4.24786 13.0642 4.36476C12.9418 4.38709 12.775 4.36476 12.586 4.33127L12.5402 4.32549L12.5401 4.32548C12.1002 4.26979 11.514 4.19558 10.7513 4.46526C9.69722 4.83575 9.10276 6.13949 9.01536 6.33119C9.01057 6.34171 9.00729 6.34888 9.00556 6.35236C9.00383 6.34888 9.00055 6.34171 8.99576 6.33119C8.90836 6.13949 8.31392 4.83575 7.25982 4.46526C6.50554 4.19474 5.90789 4.27027 5.46687 4.326L5.46683 4.32601L5.42513 4.33127C5.38508 4.336 5.34553 4.34123 5.30702 4.34633H5.307L5.30691 4.34634C5.16365 4.3653 5.03461 4.38236 4.947 4.36476C4.16297 4.24773 3.41932 3.3602 3.34131 3.2671L3.3347 3.25931L2.90104 2.71216L2.96775 4.3536C2.55634 3.99628 2.4229 3.63896 2.4229 3.61663L2.03373 2.5L1.76687 8.56328C1.60008 8.9541 1.5 9.40075 1.5 9.85853C1.5 10.2159 1.55559 10.562 1.66679 10.8858L1.53336 14.1799L1.63343 14.2469C1.65567 14.2692 2.25611 14.6823 3.31245 14.7048C3.62441 14.7048 3.93635 14.6316 4.25837 14.556L4.25839 14.556L4.25865 14.556H4.25868L4.29096 14.5484C4.80245 14.4144 5.39177 14.2692 6.18125 14.3474C7.32787 14.4502 8.71956 15.7363 8.96777 15.9656L8.96813 15.966L8.96816 15.9661L8.96846 15.9663L8.97424 15.9717L8.97434 15.9718C8.9918 15.9878 9.00241 15.9976 9.00556 16C9.03892 15.9665 10.5845 14.4479 11.8298 14.3474C12.6116 14.282 13.1814 14.4189 13.6841 14.5397L13.6846 14.5398L13.7201 14.5484C14.0648 14.6377 14.3873 14.7159 14.6987 14.7048C15.755 14.6823 16.3554 14.2692 16.3777 14.2469L16.4778 14.1799L16.3332 10.8747C16.4332 10.5509 16.5 10.2048 16.5 9.84737ZM16.0441 9.84747C16.0441 11.4108 14.7765 12.6837 13.2198 12.6837C11.6632 12.6837 10.3955 11.4108 10.3955 9.84747C10.3955 8.28419 11.6632 7.01123 13.2198 7.01123C14.7765 7.01123 16.0441 8.28419 16.0441 9.84747ZM3.47899 5.21322C2.9675 4.97872 2.6228 4.68841 2.40041 4.42041L2.25586 7.77029C2.86743 7.03332 3.76809 6.56433 4.79108 6.56433C6.42562 6.56433 7.7933 7.78145 8.0268 9.35589C8.20471 8.96508 8.54941 8.83108 9.02754 8.83108C9.48347 8.83108 9.81703 8.94274 9.99497 9.2889C10.2506 7.73679 11.6072 6.55317 13.2195 6.55317C14.2425 6.55317 15.1543 7.02214 15.7548 7.75912L15.6102 4.42041C15.3767 4.68841 15.032 4.97872 14.5316 5.21322C13.8062 5.54434 13.3523 5.47178 12.8695 5.39458L12.8526 5.39188C12.4523 5.32487 12.0409 5.25788 11.3737 5.41421C10.7399 5.57054 9.3945 6.95515 9.00531 7.39064C8.61612 6.95515 7.27069 5.57054 6.63688 5.41421C5.96972 5.25788 5.55831 5.32487 5.15801 5.39188C4.67988 5.4812 4.22398 5.55937 3.47899 5.21322ZM1.95606 9.84747C1.95606 8.28419 3.22366 7.01123 4.78037 7.01123C6.33708 7.01123 7.60468 8.28419 7.60468 9.84747C7.60468 11.4108 6.3482 12.6948 4.79149 12.6948C3.22366 12.6948 1.95606 11.4219 1.95606 9.84747ZM14.6879 14.258C15.3662 14.2469 15.8221 14.0459 16.0111 13.9454L15.9111 11.7122C15.3218 12.5719 14.3321 13.1415 13.2091 13.1415C11.708 13.1415 10.4292 12.1253 10.0511 10.7296C9.78431 11.6228 9.01706 12.4938 9.01706 12.4938C9.01706 12.4938 8.20535 11.567 7.96072 10.6514C7.60491 12.0807 6.31507 13.1415 4.78059 13.1415C3.65753 13.1415 2.66792 12.5719 2.07859 11.7122L1.97852 13.9454C2.16755 14.0459 2.62343 14.2469 3.30172 14.258C3.55747 14.258 3.84656 14.1911 4.16902 14.1129L4.24786 14.0943C4.75631 13.9741 5.38021 13.8265 6.21499 13.9008C7.44923 14.0124 8.66124 15.1402 8.99483 15.4863C9.32841 15.1402 10.5293 14.0124 11.7746 13.9008C12.6531 13.8226 13.298 13.9789 13.8206 14.1129L13.8499 14.1198C14.1705 14.1949 14.4397 14.258 14.6879 14.258ZM5.90832 9.29129C5.82804 9.48625 5.63309 9.62388 5.4152 9.62388C5.11703 9.62388 4.87621 9.38303 4.87621 9.08486C4.87621 8.85551 5.01382 8.67202 5.20878 8.59174C5.07116 8.53441 4.91061 8.5 4.75006 8.5C4.06199 8.5 3.50006 9.06193 3.50006 9.74997C3.50006 10.4381 4.06199 11 4.75006 11C5.43814 11 6.00006 10.4381 6.00006 9.74997C6.00006 9.58947 5.96566 9.42887 5.90832 9.29129ZM13.9151 9.62388C14.133 9.62388 14.328 9.48625 14.4083 9.29129C14.4656 9.42887 14.4885 9.58947 14.5 9.74997C14.5 10.4381 13.9381 11 13.25 11C12.5619 11 12 10.4381 12 9.74997C12 9.06193 12.5619 8.5 13.25 8.5C13.4106 8.5 13.5711 8.53441 13.7087 8.59174C13.5138 8.67202 13.3762 8.85551 13.3762 9.08486C13.3762 9.38303 13.617 9.62388 13.9151 9.62388Z" fill="#6C6F80"/>
</g>
</svg>

<svg xmlns="http://www.w3.org/2000/svg" width="18" height="18" fill="none" viewBox="0 0 18 18">
  <path fill="#6C6F80" fill-rule="evenodd" d="M16.5 9.847c0-.457-.089-.893-.267-1.284L15.966 2.5l-.389 1.117-.005.01c-.027.066-.16.387-.54.727l.067-1.642-.422.547-.007.008c-.079.095-.812.98-1.606 1.098-.122.022-.289 0-.478-.034l-.046-.006c-.44-.055-1.026-.13-1.789.14-1.054.37-1.648 1.674-1.736 1.866a.944.944 0 0 1-.01.021.944.944 0 0 1-.01-.02c-.087-.193-.681-1.496-1.735-1.867-.754-.27-1.352-.195-1.793-.139l-.042.005-.118.015c-.143.02-.272.036-.36.019-.784-.117-1.528-1.005-1.606-1.098l-.006-.008-.434-.547.067 1.642c-.412-.358-.545-.715-.545-.737L2.033 2.5l-.266 6.063A3.33 3.33 0 0 0 1.5 9.86c0 .357.056.703.167 1.027l-.134 3.294.1.067c.023.022.623.435 1.68.458.311 0 .623-.073.945-.149l.033-.008c.511-.134 1.1-.279 1.89-.2 1.147.102 2.539 1.388 2.787 1.618l.006.006c.018.016.028.026.032.028.033-.034 1.579-1.552 2.824-1.653.782-.065 1.351.072 1.854.193l.036.008c.345.09.667.168.979.157 1.056-.023 1.656-.436 1.679-.458l.1-.067-.145-3.305c.1-.324.167-.67.167-1.028Zm-.456 0a2.834 2.834 0 0 1-2.824 2.837 2.834 2.834 0 0 1-2.825-2.837 2.834 2.834 0 0 1 2.825-2.836 2.834 2.834 0 0 1 2.824 2.836ZM3.48 5.213c-.512-.234-.856-.525-1.079-.793l-.144 3.35A3.277 3.277 0 0 1 4.79 6.564a3.284 3.284 0 0 1 3.236 2.792c.178-.39.522-.525 1-.525.456 0 .79.112.968.458a3.278 3.278 0 0 1 3.225-2.736 3.26 3.26 0 0 1 2.535 1.206L15.61 4.42a3.224 3.224 0 0 1-1.078.793c-.726.331-1.18.259-1.662.182l-.017-.003c-.4-.067-.812-.134-1.48.022-.633.157-1.978 1.541-2.368 1.977-.389-.436-1.734-1.82-2.368-1.977-.667-.156-1.079-.09-1.479-.022-.478.09-.934.167-1.679-.179ZM1.956 9.847A2.834 2.834 0 0 1 4.78 7.011a2.834 2.834 0 0 1 2.825 2.836c0 1.564-1.257 2.848-2.814 2.848a2.839 2.839 0 0 1-2.835-2.848Zm12.732 4.411c.678-.011 1.134-.212 1.323-.313l-.1-2.233a3.274 3.274 0 0 1-2.702 1.43 3.275 3.275 0 0 1-3.158-2.412c-.267.893-1.034 1.764-1.034 1.764s-.812-.927-1.056-1.843a3.283 3.283 0 0 1-3.18 2.49 3.274 3.274 0 0 1-2.702-1.429l-.1 2.233c.189.1.644.302 1.323.313.255 0 .545-.067.867-.145l.079-.019c.508-.12 1.132-.268 1.967-.193 1.234.111 2.446 1.24 2.78 1.585.333-.346 1.534-1.474 2.78-1.585.878-.078 1.523.078 2.046.212l.029.007c.32.075.59.138.838.138Zm-8.78-4.967a.539.539 0 0 1-.493.333.538.538 0 0 1-.539-.54c0-.228.138-.412.333-.492A1.212 1.212 0 0 0 4.75 8.5c-.688 0-1.25.562-1.25 1.25S4.062 11 4.75 11 6 10.438 6 9.75c0-.16-.034-.321-.092-.459Zm8.007.333a.54.54 0 0 0 .493-.333c.058.138.08.298.092.459 0 .688-.562 1.25-1.25 1.25S12 10.438 12 9.75s.562-1.25 1.25-1.25c.16 0 .321.034.459.092a.527.527 0 0 0-.333.493c0 .298.241.539.54.539Z" clip-rule="evenodd"/>
</svg>
